src/status/22/bluetooth-paired.svg

<svg viewBox="0 0 22 22" xmlns="http://www.w3.org/2000/svg">
 <path d="m9 2v7l-3.873-2.766-1.34 1.043 5.213 3.723-5.213 3.723 1.34 1.043 3.873-2.766v7l7.699-5.5-4.9-3.5 4.9-3.5zm2 3.428 2.9 2.072-2.9 2.072zm0 7 2.9 2.072-2.9 2.072z" fill="#2e3440"/>
 <path d="m18 8-4 3 4 3z" fill="#2e3440" fill-rule="evenodd"/>
 <path d="m3 8 4 3-4 3z" fill="#2e3440" fill-rule="evenodd"/>
</svg>

<svg xmlns="http://www.w3.org/2000/svg" viewBox="0 0 22 22">
 <path style="fill:#2e3440;opacity:1;fill-opacity:1;stroke:none;fill-rule:nonzero" d="M 9,2 9,9 5.127,6.234 3.787,7.277 9,11 3.787,14.723 5.127,15.766 9,13 l 0,7 7.699,-5.5 -4.9,-3.5 4.9,-3.5 z M 11,5.428 13.9,7.5 11,9.572 Z m 0,7 2.9,2.072 -2.9,2.072 z"/>
 <path style="fill:#2e3440;fill-opacity:1;stroke:none;fill-rule:evenodd" d="m 18 8 -4 3 4 3 z"/>
 <path style="fill:#2e3440;fill-opacity:1;stroke:none;fill-rule:evenodd" d="m 3 8 4 3 -4 3 z"/>
</svg>
